assets/icon/qt.svg

<?xml version="1.0" encoding="UTF-8" standalone="no"?>
<svg
   xmlns:dc="http://purl.org/dc/elements/1.1/"
   xmlns:cc="http://creativecommons.org/ns#"
   xmlns:rdf="http://www.w3.org/1999/02/22-rdf-syntax-ns#"
   xmlns:svg="http://www.w3.org/2000/svg"
   xmlns="http://www.w3.org/2000/svg"
   xmlns:sodipodi="http://sodipodi.sourceforge.net/DTD/sodipodi-0.dtd"
   xmlns:inkscape="http://www.inkscape.org/namespaces/inkscape"
   width="616"
   height="452"
   viewBox="0 0 462 339"
   version="1.1"
   id="svg2"
   inkscape:version="1.0 (4035a4fb49, 2020-05-01)"
   sodipodi:docname="qt.svg">
  <metadata
     id="metadata20">
    <rdf:RDF>
      <cc:Work
         rdf:about="">
        <dc:format>image/svg+xml</dc:format>
        <dc:type
           rdf:resource="http://purl.org/dc/dcmitype/StillImage" />
        <dc:title></dc:title>
      </cc:Work>
    </rdf:RDF>
  </metadata>
  <defs
     id="defs18" />
  <sodipodi:namedview
     units="px"
     pagecolor="#ffffff"
     bordercolor="#666666"
     borderopacity="1"
     objecttolerance="10"
     gridtolerance="10"
     guidetolerance="10"
     inkscape:pageopacity="0"
     inkscape:pageshadow="2"
     inkscape:window-width="1638"
     inkscape:window-height="1041"
     id="namedview16"
     showgrid="false"
     inkscape:zoom="1.1138643"
     inkscape:cx="270.58047"
     inkscape:cy="174.65092"
     inkscape:window-x="265"
     inkscape:window-y="95"
     inkscape:window-maximized="0"
     inkscape:current-layer="svg2"
     inkscape:document-rotation="0" />
  <path
     fill="#000000"
     d="M 75.476961,12.119968 H 445.48252 V 267.26132 c -19.86981,19.9348 -39.80461,39.80461 -59.78584,59.61871 H 16.51748 V 70.977314 C 36.090171,51.283919 55.829991,31.739083 75.476961,12.119968 Z"
     id="path6"
     style="fill:#000000;fill-opacity:1;stroke:#ffffff;stroke-width:2.25071;stroke-miterlimit:4;stroke-dasharray:none;stroke-opacity:1" />
  <path
     d="M 122.37,71.33 C 137.5,61.32 156.21,58.79 174,58.95 c 16.94,0.21 34.72,3.18 48.76,13.29 10.2,7.17 16.83,18.24 21.25,29.69 7.15,18.8 9.25,39.1 9.49,59.08 0.03,20.12 -0.88,40.68 -7.54,59.85 -4.46,13.04 -12.95,24.62 -24.15,32.66 8.06,13.06 16.28,26.02 24.34,39.08 -10.13,4.67 -20.23,9.37 -30.37,14.02 -8.63,-14.24 -17.22,-28.51 -25.88,-42.73 -11.71,1.92 -23.69,1.77 -35.46,0.47 -14.1,-1.69 -28.47,-5.99 -39.35,-15.48 -8.36,-7.24 -13.61,-17.37 -17.2,-27.67 -5.88,-17.42 -7.46,-35.96 -7.73,-54.24 -0.14,-19.76 1.12,-39.83 7.08,-58.79 4.61,-14.26 12.24,-28.49 25.13,-36.85 z"
     id="path8"
     fill="#ffffff" />
  <path
     d="m 294.13,70.69 c 10.6,-0.01 21.2,-0.01 31.8,0 0.03,14.02 -0.01,28.03 0.02,42.05 13.55,0.02 27.1,0 40.65,0.01 -0.23,9.1 -0.48,18.2 -0.74,27.3 -13.54,0.03 -27.07,-0.01 -40.61,0.02 0.03,22.98 -0.07,45.96 0.05,68.94 0.26,6.29 0.12,12.93 2.89,18.74 2.02,4.48 7.46,5.63 11.89,5.78 8.35,-0.03 16.69,-0.52 25.04,-0.67 0.51,8.36 1,16.73 1.48,25.09 -16.61,2.79 -34.04,6.13 -50.54,0.91 -6.95,-2.06 -13.43,-6.67 -16.25,-13.54 -5.05,-11.69 -5.46,-24.7 -5.68,-37.25 -0.02,-22.67 0,-45.33 -0.01,-68 -7.39,-0.02 -14.78,0.01 -22.17,-0.02 -0.02,-9.09 -0.02,-18.19 0,-27.29 7.39,-0.03 14.77,0.01 22.16,-0.02 0.03,-14.02 -0.01,-28.03 0.02,-42.05 z"
     id="path10"
     fill="#ffffff" />
  <path
     fill="#000000"
     d="m 160.51,87.7 c 10.29,-1.34 21.09,-0.98 30.83,2.91 7.89,3.12 14.59,9.23 18.13,16.97 5.43,11.73 7.51,24.68 8.56,37.47 1.14,17.02 0.98,34.2 -1.37,51.12 -1.65,10.07 -4,20.68 -10.82,28.62 -6.92,7.97 -17.59,11.39 -27.83,12.19 -10.8,0.79 -22.19,0 -31.94,-5.11 -5.69,-3.03 -10.52,-7.78 -13.34,-13.6 -3.42,-6.97 -5.3,-14.58 -6.62,-22.2 -3.98,-24.16 -4.94,-49.16 0.5,-73.18 2.24,-9.06 5.5,-18.36 12.12,-25.19 5.76,-5.85 13.78,-8.87 21.78,-10 z"
     id="path12"
     style="fill:#000000;fill-opacity:1" />
</svg>

<?xml version="1.0" encoding="UTF-8" standalone="no"?>
<svg
   xmlns:dc="http://purl.org/dc/elements/1.1/"
   xmlns:cc="http://creativecommons.org/ns#"
   xmlns:rdf="http://www.w3.org/1999/02/22-rdf-syntax-ns#"
   xmlns:svg="http://www.w3.org/2000/svg"
   xmlns="http://www.w3.org/2000/svg"
   xmlns:sodipodi="http://sodipodi.sourceforge.net/DTD/sodipodi-0.dtd"
   xmlns:inkscape="http://www.inkscape.org/namespaces/inkscape"
   width="462pt"
   height="339pt"
   viewBox="0 0 462 339"
   version="1.1"
   id="svg2"
   inkscape:version="0.91 r13725"
   sodipodi:docname="TheQtCompany_logo_2.svg">
  <metadata
     id="metadata20">
    <rdf:RDF>
      <cc:Work
         rdf:about="">
        <dc:format>image/svg+xml</dc:format>
        <dc:type
           rdf:resource="http://purl.org/dc/dcmitype/StillImage" />
        <dc:title></dc:title>
      </cc:Work>
    </rdf:RDF>
  </metadata>
  <defs
     id="defs18" />
  <sodipodi:namedview
     pagecolor="#ffffff"
     bordercolor="#666666"
     borderopacity="1"
     objecttolerance="10"
     gridtolerance="10"
     guidetolerance="10"
     inkscape:pageopacity="0"
     inkscape:pageshadow="2"
     inkscape:window-width="1536"
     inkscape:window-height="801"
     id="namedview16"
     showgrid="false"
     inkscape:zoom="1.1138643"
     inkscape:cx="270.58047"
     inkscape:cy="174.65092"
     inkscape:window-x="-8"
     inkscape:window-y="-8"
     inkscape:window-maximized="1"
     inkscape:current-layer="svg2" />
  <path
     fill="#41cd52"
     d=" M 63.50 0.00 L 462.00 0.00 L 462.00 274.79 C 440.60 296.26 419.13 317.66 397.61 339.00 L 0.00 339.00 L 0.00 63.39 C 21.08 42.18 42.34 21.13 63.50 0.00 Z"
     id="path6" />
  <path
     d=" M 122.37 71.33 C 137.50 61.32 156.21 58.79 174.00 58.95 C 190.94 59.16 208.72 62.13 222.76 72.24 C 232.96 79.41 239.59 90.48 244.01 101.93 C 251.16 120.73 253.26 141.03 253.50 161.01 C 253.53 181.13 252.62 201.69 245.96 220.86 C 241.50 233.90 233.01 245.48 221.81 253.52 C 229.87 266.58 238.09 279.54 246.15 292.60 C 236.02 297.27 225.92 301.97 215.78 306.62 C 207.15 292.38 198.56 278.11 189.90 263.89 C 178.19 265.81 166.21 265.66 154.44 264.36 C 140.34 262.67 125.97 258.37 115.09 248.88 C 106.73 241.64 101.48 231.51 97.89 221.21 C 92.01 203.79 90.43 185.25 90.16 166.97 C 90.02 147.21 91.28 127.14 97.24 108.18 C 101.85 93.92 109.48 79.69 122.37 71.33 Z"
     id="path8"
     fill="#ffffff" />
  <path
     d=" M 294.13 70.69 C 304.73 70.68 315.33 70.68 325.93 70.69 C 325.96 84.71 325.92 98.72 325.95 112.74 C 339.50 112.76 353.05 112.74 366.60 112.75 C 366.37 121.85 366.12 130.95 365.86 140.05 C 352.32 140.08 338.79 140.04 325.25 140.07 C 325.28 163.05 325.18 186.03 325.30 209.01 C 325.56 215.30 325.42 221.94 328.19 227.75 C 330.21 232.23 335.65 233.38 340.08 233.53 C 348.43 233.50 356.77 233.01 365.12 232.86 C 365.63 241.22 366.12 249.59 366.60 257.95 C 349.99 260.74 332.56 264.08 316.06 258.86 C 309.11 256.80 302.63 252.19 299.81 245.32 C 294.76 233.63 294.35 220.62 294.13 208.07 C 294.11 185.40 294.13 162.74 294.12 140.07 C 286.73 140.05 279.34 140.08 271.95 140.05 C 271.93 130.96 271.93 121.86 271.95 112.76 C 279.34 112.73 286.72 112.77 294.11 112.74 C 294.14 98.72 294.10 84.71 294.13 70.69 Z"
     id="path10"
     fill="#ffffff" />
  <path
     fill="#41cd52"
     d=" M 160.51 87.70 C 170.80 86.36 181.60 86.72 191.34 90.61 C 199.23 93.73 205.93 99.84 209.47 107.58 C 214.90 119.31 216.98 132.26 218.03 145.05 C 219.17 162.07 219.01 179.25 216.66 196.17 C 215.01 206.24 212.66 216.85 205.84 224.79 C 198.92 232.76 188.25 236.18 178.01 236.98 C 167.21 237.77 155.82 236.98 146.07 231.87 C 140.38 228.84 135.55 224.09 132.73 218.27 C 129.31 211.30 127.43 203.69 126.11 196.07 C 122.13 171.91 121.17 146.91 126.61 122.89 C 128.85 113.83 132.11 104.53 138.73 97.70 C 144.49 91.85 152.51 88.83 160.51 87.70 Z"
     id="path12" />
</svg>
